X:1
T:Tistesse prelude
T:Tristesse Prelude
T:Chopin. Arr. for guitar G.Dempsey
C:Chopin
%%score ( 1 2 3 )
L:1/8
Q:1/4=50
M:4/4
K:C
V:1 treble-8 nm="Classical Guitar" snm="Guit."
V:2 treble-8 
V:3 treble-8 
V:1
|: [ce]2 Bc d4- | d!-(!{/d}!-)!eed e4- | effe a3 g | feBc d4- | deed c4 | %5
 [_Be][cf][Bd][ce] [Af][cg][Ae][cf] | a2 d4 ed |1 !1!d2 [^Fe][cd] !0!!4![Bg]4 :|2 %8
[K:C] [_Bdg][cea][Bda][ceg] [Af][cg][Ae][cf] || [d^gb][ec'][d^fc'][e^gb] [ca][eb][c^g][ea] | %10
 c'd'bc' d'e'c'd' |[K:C] e'4- e'd'c'a | b4 c'bae | g4 a[cg][Af]c | e4 edc_A | e4 edc_A | e8- | %17
 e4- [Ee][Gd][Ec]G | [Ec]8 |][K:D]"^\nVersion in D" [df]2 cd e4- | effe f4- | fggf b3 a | %22
 gfcd e4- | effe d4 |1 [=cf][dg][ce][df] [Bg][da][Bf][dg] || b2 e4 fe | e2 [^Gf][de] [ca]4 :|2 %27
 [=cea][dfb][=ceb][dfa] [Bg][da][Bf][dg] || !1!!4![e^ac'][fd'][e^gd'][fac'] [db][Bfc'][da][fb] | %29
 [e^gd']e'[Begc']d' e'f'd'e' | f'4- f'e'd'b | c'4 d'c'bf | a4 bagd | f4 fed_B | f4 fed_B | f8- | %36
 f4- [Ff][Ae][Fd] z | [fd']8 |] %38
V:2
|: CGEG G,GFG | G,!-(!{/F}!-)!GFG CGEG | C[Gc]G[Gc] [G,F]BG[GB] | C[Gc]EG [G,FA]G[FA][FG] | %4
 G,[GB]A[GB] C[EG][CE][EG] | C3 C F, C2 C | %6
 [Fd]cF[A,c]"^CIII........................" [G,G][cd]G[Gc] |1 [A,^F] !3!!4![Dc]2 D G, D2 D :|2 %8
[K:C] C c2 c F, F2 F || E,4 A,4 | [Ad^f]2 [Adf]2 [cf^g]2 [Dfg]2 |[K:C] c4 cgcg | %12
 !1![DG]2 G2 [A,e]2 E,2 | E2 E,2 [Fc]2 C2 | C2 C2 _A2 C2 | C2 C2 _A2 C2 | G, C2 C G, C2 C | %17
 G, C2 C G, C2 G,- | [G,C]8 |][K:D] DAFA A,AGA | A,AGA DAFA | D[Ad]A[Ad] [A,G]cA[Ac] | %22
 D[Ad]EA [A,GB]A[GB][GA] | A,[Ac]B[Ac] D[FA]D[FA] |1 D3 D G, D2 D || G !0!B2 B A, e2 A | %26
 [B,^G] D2 E A, E2 E :|2 D d2 d G, G2 G || !1!F4 B,4 | E,4 !0![D^G_b]2 [Gb]2 | d8 | E4 [B,f]2 F2 | %32
 [FA]2 F,2 [Gd]2 D2 | D2 D2 _B2 D2 | D2 D2 _B2 D2 | A, D2 D A, D2 D | A, D2 D A, D2 A,- | [A,D]8 |] %38
V:3
|: x8 | x8 | x8 | x8 | x8 | x8 | x8 |1 x4 !2!!3!=FGFG :|2[K:C] x8 || x8 | x8 |[K:C] egeg x4 | %12
 !0!BdBd cece | GBGB x4 | EGEG F_AF x | EGEG F_AF x | x =GEG EGEG | EGE G2 x3 | x8 |][K:D] x8 | %20
 x8 | x8 | x8 | x8 |1 x8 || d2 Gd AdAd | x4 =GAGA :|2 x8 || x8 | x8 | z afa fafa | AeAe dfdf | %32
 AcAc x dB x | FAFA G,_BG x | FAFA G,_BG x | x AFA FAFA | FAFA x4 | x8 |] %38

